2 Export/Icons/Outlined/Bookmark.svg

<svg xmlns="http://www.w3.org/2000/svg" xmlns:xlink="http://www.w3.org/1999/xlink" width="24" height="24" viewBox="0 0 24 24">
  <defs>
    <path id="bookmark-a" d="M17 3H7c-1.1 0-2 .9-2 2v16l7-3 7 3V5c0-1.1-.9-2-2-2zm0 15l-5-2.18L7 18V6c0-.55.45-1 1-1h8c.55 0 1 .45 1 1v12z"/>
  </defs>
  <g fill="none" fill-rule="evenodd">
    <polygon points="0 0 24 0 24 24 0 24"/>
    <mask id="bookmark-b" fill="#fff">
      <use xlink:href="#bookmark-a"/>
    </mask>
    <use fill="#000" xlink:href="#bookmark-a"/>
    <g fill="#000" mask="url(#bookmark-b)">
      <rect width="24" height="24"/>
    </g>
  </g>
</svg>

<svg xmlns="http://www.w3.org/2000/svg" xmlns:xlink="http://www.w3.org/1999/xlink" width="24" height="24" viewBox="0 0 24 24">
  <defs>
    <path id="bookmark-a" d="M17,3 L7,3 C5.9,3 5,3.9 5,5 L5,21 L12,18 L19,21 L19,5 C19,3.9 18.1,3 17,3 Z M17,18 L12,15.82 L7,18 L7,6 C7,5.45 7.45,5 8,5 L16,5 C16.55,5 17,5.45 17,6 L17,18 Z"/>
  </defs>
  <g fill="none" fill-rule="evenodd">
    <polygon points="0 0 24 0 24 24 0 24"/>
    <mask id="bookmark-b" fill="#fff">
      <use xlink:href="#bookmark-a"/>
    </mask>
    <use fill="#000" xlink:href="#bookmark-a"/>
    <g fill="#000" mask="url(#bookmark-b)">
      <rect width="24" height="24"/>
    </g>
  </g>
</svg>
